Newaita-dark/actions/24/gnumeric-object-combo.svg

<svg height="24" viewBox="0 0 24 24" width="24" xmlns="http://www.w3.org/2000/svg"><g fill="#e0e0e0"><path d="m20.339844 10.605469h-16.867188c-.273437 0-.496094-.222657-.496094-.496094v-.992187c0-.273438.222657-.496094.496094-.496094h16.867188c.277344 0 .5.222656.5.496094v.992187c0 .273437-.222656.496094-.5.496094zm0 0"/><path d="m20.339844 5.148438h-16.867188c-.273437 0-.496094-.222657-.496094-.496094v-.992188c0-.273437.222657-.496094.496094-.496094h16.867188c.277344 0 .5.222657.5.496094v.992188c0 .273437-.222656.496094-.5.496094zm0 0"/><path d="m14.882812 18.046875h-5.953124l2.976562 3.972656zm0 0"/><path d="m20.339844 16.0625h-16.867188c-.273437 0-.496094-.21875-.496094-.496094v-.992187c0-.273438.222657-.496094.496094-.496094h16.867188c.277344 0 .5.222656.5.496094v.992187c0 .277344-.222656.496094-.5.496094zm0 0"/></g></svg>

<?xml version="1.0" encoding="UTF-8"?>
<svg xmlns="http://www.w3.org/2000/svg" xmlns:xlink="http://www.w3.org/1999/xlink" width="24px" height="24px" viewBox="0 0 24 24" version="1.1">
<g id="surface1">
<path style=" stroke:none;fill-rule:nonzero;fill:rgb(87.843138%,87.843138%,87.843138%);fill-opacity:1;" d="M 20.339844 10.605469 L 3.472656 10.605469 C 3.199219 10.605469 2.976562 10.382812 2.976562 10.109375 L 2.976562 9.117188 C 2.976562 8.84375 3.199219 8.621094 3.472656 8.621094 L 20.339844 8.621094 C 20.617188 8.621094 20.839844 8.84375 20.839844 9.117188 L 20.839844 10.109375 C 20.839844 10.382812 20.617188 10.605469 20.339844 10.605469 Z M 20.339844 10.605469 "/>
<path style=" stroke:none;fill-rule:nonzero;fill:rgb(87.843138%,87.843138%,87.843138%);fill-opacity:1;" d="M 20.339844 5.148438 L 3.472656 5.148438 C 3.199219 5.148438 2.976562 4.925781 2.976562 4.652344 L 2.976562 3.660156 C 2.976562 3.386719 3.199219 3.164062 3.472656 3.164062 L 20.339844 3.164062 C 20.617188 3.164062 20.839844 3.386719 20.839844 3.660156 L 20.839844 4.652344 C 20.839844 4.925781 20.617188 5.148438 20.339844 5.148438 Z M 20.339844 5.148438 "/>
<path style=" stroke:none;fill-rule:nonzero;fill:rgb(87.843138%,87.843138%,87.843138%);fill-opacity:1;" d="M 14.882812 18.046875 L 8.929688 18.046875 L 11.90625 22.019531 Z M 14.882812 18.046875 "/>
<path style=" stroke:none;fill-rule:nonzero;fill:rgb(87.843138%,87.843138%,87.843138%);fill-opacity:1;" d="M 20.339844 16.0625 L 3.472656 16.0625 C 3.199219 16.0625 2.976562 15.84375 2.976562 15.566406 L 2.976562 14.574219 C 2.976562 14.300781 3.199219 14.078125 3.472656 14.078125 L 20.339844 14.078125 C 20.617188 14.078125 20.839844 14.300781 20.839844 14.574219 L 20.839844 15.566406 C 20.839844 15.84375 20.617188 16.0625 20.339844 16.0625 Z M 20.339844 16.0625 "/>
</g>
</svg>
